_inc/images/systems/logos/pocketstation.svg

<svg viewBox="0 0 3839 509.9" xmlns="http://www.w3.org/2000/svg">
    <path class="st0" d="m1350.908 451.5-168-120.375 161.125-107.375-38.375-57.625-144.875 96.625-6 5.375.875-7.5V48.375h-69.25V502.75h69.25v-99.5l-1.125-8.625 6.5 6.125 149.625 107.125 40.25-56.375m1678.125 51h69.25V175h-69.25v327.5Zm.125-392h69.25V48h-69.25v62.5ZM190.908 0C86.033 0 .658 86.25.158 191.125L-.092 510h69.25V338c33 27.375 75.5 43.875 121.625 43.875 105.25 0 190.875-85.625 190.875-190.875S296.158 0 190.908 0Zm0 312.625C123.783 312.625 69.283 258 69.283 191c0-67.125 54.625-121.625 121.625-121.625C258.033 69.375 312.533 124 312.533 191s-54.5 121.625-121.625 121.625m358.625 196c93.75 0 170.125-76.25 170.125-170.125 0-93.75-76.25-170.125-170.125-170.125S379.408 244.625 379.408 338.5s76.25 170.125 170.125 170.125ZM448.658 338.5c0-55.625 45.25-100.875 100.875-100.875s100.875 45.25 100.875 100.875-45.25 100.875-100.875 100.875-100.875-45.25-100.875-100.875m610.75-92.25c-31.5-48.875-85-78-143-78-93.75 0-170.125 76.25-170.125 170.125 0 93.75 76.25 170 170.125 170 62 0 119.125-33.75 149.125-88.125l-60.625-33.375c-17.75 32.25-51.625 52.375-88.375 52.375-55.625 0-100.875-45.25-100.875-100.875S860.908 237.5 916.533 237.5c34.375 0 66.125 17.25 84.75 46.25l58.125-37.5" style="fill:#fff"/>
    <path class="st0" d="M1681.033 373.75c3.5-14.75 3.625-34.5 3.625-34.5 0-93.75-76.25-170.125-170.125-170.125-93.75 0-170.125 76.25-170.125 170.125 0 93.75 76.25 170 170.125 170 61.625 0 118.5-33.5 148.625-87.25l-60.5-33.75c-17.875 31.875-51.625 51.75-88.125 51.75-41.125 0-76.375-24.75-92.125-60-.875-2-3.125-5.125-3.875-7.25l7.625 1.125h223.75l31.125-.125Zm-258.625-74.875c15.625-35.5 51-60.375 92.25-60.375 41.125 0 76.375 24.75 92.125 60.125.875 2 3.125 5 3.875 7.125l-7.625-1h-177.875l-6.25 1c.75-2.125 2.625-5 3.5-6.875m361 34v-88.5h100.75v-69.25h-100.75V100.75h-69.25v232.125c0 93.75 76.25 170.125 170 170.125v-69.25c-55.5 0-100.75-45.25-100.75-100.875m411.375-223.75c-3.625-54.5-63-102.375-127.125-102.375-39.75 0-75.25 13.75-100 38.625-24.375 24.5-37.125 58-36.875 96.875.375 68.25 57.125 118.875 134.875 120.5 68.125 1.375 101.25 29 101.125 84.5 0 64.375-50.25 93.25-100.125 93.25-50.875 0-93.875-38-100.125-88.375l-68.75 8.375c10.375 85 83 149.125 168.75 149.125 98 0 169.25-68.25 169.375-162.375 0-94.125-63.125-151.625-169-153.75-33.25-.625-66.875-16.875-67-51.625-.125-20.375 5.5-36.375 16.75-47.75 11.75-11.75 29.75-18.25 50.875-18.25 30.125 0 57 23.25 58 37.75l69.25-4.5m140.375 223.75v-88.25h100.25v-69.25h-100.25v-69h-69.25v226.5c0 93.75 76.25 170.125 170.125 170.125v-69.25c-55.625 0-100.875-45.25-100.875-100.875m381.5-157.375v20.375l.75 8.375c-1.625-1.25-4-4.5-5.625-5.75-27.375-18.875-60.5-30-96.25-30-93.75 0-170.125 76.25-170.125 170.125 0 93.75 76.25 170.125 170.125 170.125 35.625 0 68.75-11.125 96.125-29.875 1.75-1.125 4.375-4.25 6-5.5l-1 8v21.25h69.25v-327.25l-69.25.125Zm-101.125 264c-55.625 0-100.875-45.25-100.875-100.875s45.25-100.875 100.875-100.875 100.875 45.25 100.875 100.875c0 55.75-45.25 100.875-100.875 100.875m276.25-106.75v-88.375h100.5v-69.25h-100.5V105.75h-69.125v227c0 93.75 76.25 170 170.125 170V433.5c-55.75 0-101-45.125-101-100.75M3299.658 509c93.75 0 170.125-76.25 170.125-170.125 0-93.75-76.25-170-170.125-170-93.75 0-170.125 76.25-170.125 170S3205.783 509 3299.658 509Zm-100.875-170.125c0-55.625 45.25-100.875 100.875-100.875s100.875 45.25 100.875 100.875-45.25 100.875-100.875 100.875-100.875-45.25-100.875-100.875m369.375 163.875V338.625c0-55.625 45.25-100.875 100.875-100.875s100.875 45.25 100.875 100.875v164.5h69.25v-164.5c0-93.75-76.25-170.125-170.125-170.125-93.75 0-170 76.25-170 170.125V502.75h69.125" style="fill:#fff"/>
</svg>

<?xml version="1.0" encoding="utf-8"?>
<svg version="1.1" viewBox="0 0 3839 509.9" xmlns="http://www.w3.org/2000/svg">
  <path id="path1502_00000116214484874110606790000013789944870058604708_" class="st0" d="M 1350.908 451.5 L 1182.908 331.125 L 1344.033 223.75 L 1305.658 166.125 L 1160.783 262.75 L 1154.783 268.125 L 1155.658 260.625 L 1155.658 48.375 L 1086.408 48.375 L 1086.408 502.75 L 1155.658 502.75 L 1155.658 403.25 L 1154.533 394.625 L 1161.033 400.75 L 1310.658 507.875 L 1350.908 451.5" style="fill: rgb(255, 255, 255);"/>
  <path id="path1504_00000106861422269268838360000005787860199606909869_" class="st0" d="M 3029.033 502.5 L 3098.283 502.5 L 3098.283 175 L 3029.033 175 L 3029.033 502.5 Z" style="fill: rgb(255, 255, 255);"/>
  <path id="path1506_00000110436668573473266810000009535573565625024945_" class="st0" d="M 3029.158 110.5 L 3098.408 110.5 L 3098.408 48 L 3029.158 48 L 3029.158 110.5 Z" style="fill: rgb(255, 255, 255);"/>
  <path id="path1508_00000180337410278822924070000015263737692752992642_" class="st0" d="M 190.908 0 C 86.033 0 0.658 86.25 0.158 191.125 L -0.092 510 L 69.158 510 L 69.158 338 C 102.158 365.375 144.658 381.875 190.783 381.875 C 296.033 381.875 381.658 296.25 381.658 191 C 381.658 85.75 296.158 0 190.908 0 L 190.908 0 Z M 190.908 312.625 C 123.783 312.625 69.283 258 69.283 191 C 69.283 123.875 123.908 69.375 190.908 69.375 C 258.033 69.375 312.533 124 312.533 191 C 312.533 258 258.033 312.625 190.908 312.625" style="fill: rgb(255, 255, 255);"/>
  <path id="path1510_00000110439611826627406450000002115733410734828695_" class="st0" d="M 549.533 508.625 C 643.283 508.625 719.658 432.375 719.658 338.5 C 719.658 244.75 643.408 168.375 549.533 168.375 C 455.658 168.375 379.408 244.625 379.408 338.5 C 379.408 432.375 455.658 508.625 549.533 508.625 Z M 448.658 338.5 C 448.658 282.875 493.908 237.625 549.533 237.625 C 605.158 237.625 650.408 282.875 650.408 338.5 C 650.408 394.125 605.158 439.375 549.533 439.375 C 493.908 439.375 448.658 394.125 448.658 338.5" style="fill: rgb(255, 255, 255);"/>
  <path id="path1512_00000103249904392326853930000015733975952162452625_" class="st0" d="M 1059.408 246.25 C 1027.908 197.375 974.408 168.25 916.408 168.25 C 822.658 168.25 746.283 244.5 746.283 338.375 C 746.283 432.125 822.533 508.375 916.408 508.375 C 978.408 508.375 1035.533 474.625 1065.533 420.25 L 1004.908 386.875 C 987.158 419.125 953.283 439.25 916.533 439.25 C 860.908 439.25 815.658 394 815.658 338.375 C 815.658 282.75 860.908 237.5 916.533 237.5 C 950.908 237.5 982.658 254.75 1001.283 283.75 L 1059.408 246.25" style="fill: rgb(255, 255, 255);"/>
  <path id="path1514_00000001622570470380997050000004013799617665228417_" class="st0" d="M 1681.033 373.75 C 1684.533 359 1684.658 339.25 1684.658 339.25 C 1684.658 245.5 1608.408 169.125 1514.533 169.125 C 1420.783 169.125 1344.408 245.375 1344.408 339.25 C 1344.408 433 1420.658 509.25 1514.533 509.25 C 1576.158 509.25 1633.033 475.75 1663.158 422 L 1602.658 388.25 C 1584.783 420.125 1551.033 440 1514.533 440 C 1473.408 440 1438.158 415.25 1422.408 380 C 1421.533 378 1419.283 374.875 1418.533 372.75 L 1426.158 373.875 L 1649.908 373.875 L 1681.033 373.75 L 1681.033 373.75 Z M 1422.408 298.875 C 1438.033 263.375 1473.408 238.5 1514.658 238.5 C 1555.783 238.5 1591.033 263.25 1606.783 298.625 C 1607.658 300.625 1609.908 303.625 1610.658 305.75 L 1603.033 304.75 L 1425.158 304.75 L 1418.908 305.75 C 1419.658 303.625 1421.533 300.75 1422.408 298.875" style="fill: rgb(255, 255, 255);"/>
  <path id="path1516_00000148635789903242818740000017132656460308264613_" class="st0" d="M 1783.408 332.875 L 1783.408 244.375 L 1884.158 244.375 L 1884.158 175.125 L 1783.408 175.125 L 1783.408 100.75 L 1714.158 100.75 L 1714.158 332.875 C 1714.158 426.625 1790.408 503 1884.158 503 L 1884.158 433.75 C 1828.658 433.75 1783.408 388.5 1783.408 332.875" style="fill: rgb(255, 255, 255);"/>
  <path id="path1518_00000100358390336614897850000017582860359748912004_" class="st0" d="M 2194.783 109.125 C 2191.158 54.625 2131.783 6.75 2067.658 6.75 C 2027.908 6.75 1992.408 20.5 1967.658 45.375 C 1943.283 69.875 1930.533 103.375 1930.783 142.25 C 1931.158 210.5 1987.908 261.125 2065.658 262.75 C 2133.783 264.125 2166.908 291.75 2166.783 347.25 C 2166.783 411.625 2116.533 440.5 2066.658 440.5 C 2015.783 440.5 1972.783 402.5 1966.533 352.125 L 1897.783 360.5 C 1908.158 445.5 1980.783 509.625 2066.533 509.625 C 2164.533 509.625 2235.783 441.375 2235.908 347.25 C 2235.908 253.125 2172.783 195.625 2066.908 193.5 C 2033.658 192.875 2000.033 176.625 1999.908 141.875 C 1999.783 121.5 2005.408 105.5 2016.658 94.125 C 2028.408 82.375 2046.408 75.875 2067.533 75.875 C 2097.658 75.875 2124.533 99.125 2125.533 113.625 L 2194.783 109.125" style="fill: rgb(255, 255, 255);"/>
  <path id="path1520_00000127725091795516085650000015196223370632312713_" class="st0" d="M 2335.158 332.875 L 2335.158 244.625 L 2435.408 244.625 L 2435.408 175.375 L 2335.158 175.375 L 2335.158 106.375 L 2265.908 106.375 L 2265.908 332.875 C 2265.908 426.625 2342.158 503 2436.033 503 L 2436.033 433.75 C 2380.408 433.75 2335.158 388.5 2335.158 332.875" style="fill: rgb(255, 255, 255);"/>
  <path id="path1522_00000022552203054388101740000004695320674784491957_" class="st0" d="M 2716.658 175.5 L 2716.658 195.875 L 2717.408 204.25 C 2715.783 203 2713.408 199.75 2711.783 198.5 C 2684.408 179.625 2651.283 168.5 2615.533 168.5 C 2521.783 168.5 2445.408 244.75 2445.408 338.625 C 2445.408 432.375 2521.658 508.75 2615.533 508.75 C 2651.158 508.75 2684.283 497.625 2711.658 478.875 C 2713.408 477.75 2716.033 474.625 2717.658 473.375 L 2716.658 481.375 L 2716.658 502.625 L 2785.908 502.625 L 2785.908 175.375 L 2716.658 175.5 L 2716.658 175.5 Z M 2615.533 439.5 C 2559.908 439.5 2514.658 394.25 2514.658 338.625 C 2514.658 283 2559.908 237.75 2615.533 237.75 C 2671.158 237.75 2716.408 283 2716.408 338.625 C 2716.408 394.375 2671.158 439.5 2615.533 439.5" style="fill: rgb(255, 255, 255);"/>
  <path id="path1524_00000180358167851344874010000000387994241693412009_" class="st0" d="M 2891.783 332.75 L 2891.783 244.375 L 2992.283 244.375 L 2992.283 175.125 L 2891.783 175.125 L 2891.783 105.75 L 2822.658 105.75 L 2822.658 332.75 C 2822.658 426.5 2898.908 502.75 2992.783 502.75 L 2992.783 433.5 C 2937.033 433.5 2891.783 388.375 2891.783 332.75" style="fill: rgb(255, 255, 255);"/>
  <path id="path1526_00000047053496322135408100000011045296521132819372_" class="st0" d="M 3299.658 509 C 3393.408 509 3469.783 432.75 3469.783 338.875 C 3469.783 245.125 3393.533 168.875 3299.658 168.875 C 3205.908 168.875 3129.533 245.125 3129.533 338.875 C 3129.533 432.625 3205.783 509 3299.658 509 Z M 3198.783 338.875 C 3198.783 283.25 3244.033 238 3299.658 238 C 3355.283 238 3400.533 283.25 3400.533 338.875 C 3400.533 394.5 3355.283 439.75 3299.658 439.75 C 3244.033 439.75 3198.783 394.5 3198.783 338.875" style="fill: rgb(255, 255, 255);"/>
  <path id="path1528_00000030448694654977044330000017560871489170648255_" class="st0" d="M 3568.158 502.75 L 3568.158 338.625 C 3568.158 283 3613.408 237.75 3669.033 237.75 C 3724.658 237.75 3769.908 283 3769.908 338.625 L 3769.908 503.125 L 3839.158 503.125 L 3839.158 338.625 C 3839.158 244.875 3762.908 168.5 3669.033 168.5 C 3575.283 168.5 3499.033 244.75 3499.033 338.625 L 3499.033 502.75 L 3568.158 502.75" style="fill: rgb(255, 255, 255);"/>
</svg>
